map_marker_monochrome/openmoji_curry_rice.svg

<svg xmlns="http://www.w3.org/2000/svg" width="24" height="24" viewBox="0 0 24 24"> <g transform="scale(0.333333333)">  <g id="line">
    <circle cx="36" cy="36" r="28" fill="none" stroke="#000" stroke-miterlimit="10" stroke-width="2"/>
    <path fill="none" stroke="#000" stroke-linecap="round" stroke-linejoin="round" stroke-width="2" d="M41.6,43.3294a3.0615,3.0615,0,0,0-3.15-2.9647,3.2754,3.2754,0,0,0-1.3822.3127A2.7944,2.7944,0,0,0,37.4,39.3765,2.85,2.85,0,0,0,36.5825,37.4,2.85,2.85,0,0,0,37.4,35.4235a2.799,2.799,0,0,0-.23-1.1023A2.9941,2.9941,0,0,0,39.5,31.4706a3.0615,3.0615,0,0,0-3.15-2.9647,3.2754,3.2754,0,0,0-1.3822.3127,2.7948,2.7948,0,0,0,.3322-1.301,3.0616,3.0616,0,0,0-3.15-2.9647,3.2754,3.2754,0,0,0-1.3822.3127A2.7944,2.7944,0,0,0,31.1,23.5647a3.1558,3.1558,0,0,0-6.3,0,2.7944,2.7944,0,0,0,.3322,1.3009,3.2754,3.2754,0,0,0-1.3822-.3127,3.1149,3.1149,0,0,0-3.0287,2.1934,3.3064,3.3064,0,0,0-1.1713-.2169,3.0615,3.0615,0,0,0-3.15,2.9647,2.994,2.994,0,0,0,2.3305,2.8506,2.8,2.8,0,0,0-.23,1.1024,2.85,2.85,0,0,0,.8175,1.9764,2.7981,2.7981,0,0,0,0,3.953A2.85,2.85,0,0,0,18.5,41.3529a2.9939,2.9939,0,0,0,2.3305,2.8506,2.8,2.8,0,0,0-.23,1.1024,2.85,2.85,0,0,0,.8175,1.9765A2.85,2.85,0,0,0,20.6,49.2588a3.0615,3.0615,0,0,0,3.15,2.9647,3.2367,3.2367,0,0,0,2.1-.7694,3.2367,3.2367,0,0,0,2.1.7694,3.3042,3.3042,0,0,0,1.1713-.2169A3.1149,3.1149,0,0,0,32.15,54.2a3.0615,3.0615,0,0,0,3.15-2.9647,2.7944,2.7944,0,0,0-.3322-1.3009,3.2754,3.2754,0,0,0,1.3822.3127,3.0616,3.0616,0,0,0,3.15-2.9647,2.8,2.8,0,0,0-.23-1.1024A2.9941,2.9941,0,0,0,41.6,43.3294Z"/>
    <path fill="none" stroke="#000" stroke-linecap="round" stroke-linejoin="round" stroke-width="2" d="M39.1906,54.1956c4.7186.1764,8.774-5.02,9.2229-11.69,4.6147-.0414,8.416-3.1434,8.5809-7.1445.1706-4.1391-3.6059-7.6409-8.4351-7.8214a10.0471,10.0471,0,0,0-2.1748.1782,6.3414,6.3414,0,0,0,.11-.69c.1706-4.1391-3.6059-7.6409-8.4351-7.8215a10.0118,10.0118,0,0,0-3.4279.4618"/>
  </g></g></svg>

<svg xmlns="http://www.w3.org/2000/svg" width="24" height="24" viewBox="0 0 24 24"> <g transform="scale(0.41379310344827586)">
  
  <g
     id="line"
     transform="translate(-7,-7)">
    <circle
       cx="36"
       cy="36"
       r="28"
       fill="none"
       stroke="#000"
       stroke-miterlimit="10"
       stroke-width="2"
       id="circle2" />
    <path
       fill="none"
       stroke="#000"
       stroke-linecap="round"
       stroke-linejoin="round"
       stroke-width="2"
       d="M 41.6,43.3294 A 3.0615,3.0615 0 0 0 38.45,40.3647 3.2754,3.2754 0 0 0 37.0678,40.6774 2.7944,2.7944 0 0 0 37.4,39.3765 2.85,2.85 0 0 0 36.5825,37.4 2.85,2.85 0 0 0 37.4,35.4235 2.799,2.799 0 0 0 37.17,34.3212 2.9941,2.9941 0 0 0 39.5,31.4706 3.0615,3.0615 0 0 0 36.35,28.5059 3.2754,3.2754 0 0 0 34.9678,28.8186 2.7948,2.7948 0 0 0 35.3,27.5176 3.0616,3.0616 0 0 0 32.15,24.5529 3.2754,3.2754 0 0 0 30.7678,24.8656 2.7944,2.7944 0 0 0 31.1,23.5647 a 3.1558,3.1558 0 0 0 -6.3,0 2.7944,2.7944 0 0 0 0.3322,1.3009 3.2754,3.2754 0 0 0 -1.3822,-0.3127 3.1149,3.1149 0 0 0 -3.0287,2.1934 3.3064,3.3064 0 0 0 -1.1713,-0.2169 3.0615,3.0615 0 0 0 -3.15,2.9647 2.994,2.994 0 0 0 2.3305,2.8506 2.8,2.8 0 0 0 -0.23,1.1024 2.85,2.85 0 0 0 0.8175,1.9764 2.7981,2.7981 0 0 0 0,3.953 2.85,2.85 0 0 0 -0.818,1.9764 2.9939,2.9939 0 0 0 2.3305,2.8506 2.8,2.8 0 0 0 -0.23,1.1024 2.85,2.85 0 0 0 0.8175,1.9765 2.85,2.85 0 0 0 -0.818,1.9764 3.0615,3.0615 0 0 0 3.15,2.9647 3.2367,3.2367 0 0 0 2.1,-0.7694 3.2367,3.2367 0 0 0 2.1,0.7694 3.3042,3.3042 0 0 0 1.1713,-0.2169 A 3.1149,3.1149 0 0 0 32.15,54.2 3.0615,3.0615 0 0 0 35.3,51.2353 2.7944,2.7944 0 0 0 34.9678,49.9344 3.2754,3.2754 0 0 0 36.35,50.2471 3.0616,3.0616 0 0 0 39.5,47.2824 2.8,2.8 0 0 0 39.27,46.18 2.9941,2.9941 0 0 0 41.6,43.3294 Z"
       id="path4" />
    <path
       fill="none"
       stroke="#000"
       stroke-linecap="round"
       stroke-linejoin="round"
       stroke-width="2"
       d="m 39.1906,54.1956 c 4.7186,0.1764 8.774,-5.02 9.2229,-11.69 4.6147,-0.0414 8.416,-3.1434 8.5809,-7.1445 0.1706,-4.1391 -3.6059,-7.6409 -8.4351,-7.8214 a 10.0471,10.0471 0 0 0 -2.1748,0.1782 6.3414,6.3414 0 0 0 0.11,-0.69 c 0.1706,-4.1391 -3.6059,-7.6409 -8.4351,-7.8215 a 10.0118,10.0118 0 0 0 -3.4279,0.4618"
       id="path6" />
  </g>
</g></svg>
